X:1
T:Raad for Uraad
T:Raad for Uraad
T:L. M. Lindeman
T:J. S. Welhaven
C:L. M. Lindeman
%%score [ 1 2 3 4 ]
L:1/8
Q:1/4=52
M:2/4
K:Eb
V:1 treble-8 nm="Tenor"
V:2 treble-8 nm="Tenor"
V:3 bass nm="Baryton"
V:4 bass nm="Bass"
V:1
 E3/2 E/ G E | B3/2 B/ d B | e3/2 g/ f e | d c B2 | E3/2 E/ G E | B3/2 B/ d B | e3/2 g/ f e | %7
w: Gud- mund Thor- sen|Sto- re- bin- gen,|han var gjæv i|ét og alt,|smal om li- vet,|bred om brin- gen,|fast paa taa, hvor|
 d c B2 | B3/2 B/ B B | d e f2 | B3/2 B/ B B | d e f2 | e3/2 e/ d d | c3/2 c/ B B | A3/2 G/ A B | %15
w: an- dre faldt,|glad og let, men|arm paa gods,|der- for var han|flink til- fods,|flink med skræp- pen|paa sin nak- ke|baa- de op og|
 (cd) (ef) | (g2 f2) | e4 |] %18
w: ned _ ad _|bak- *|ke.|
V:2
 E3/2 E/ G E | B3/2 B/ B B | c3/2 e/ d c | B =A B2 | E3/2 E/ G E | B3/2 B/ B B | c3/2 e/ d c | %7
w: Gud- mund Thor- sen|Sto- re- bin- gen,|han var gjæv i|ét og alt,|smal om li- vet,|bred om brin- gen,|fast paa taa, hvor|
 B =A B2 | B3/2 B/ B B | B c c2 | B3/2 B/ B B | B B d2 | c3/2 c/ B B | B3/2 A/ A G | A3/2 E/ F G | %15
w: an- dre faldt,|glad og let, men|arm paa gods,|der- for var han|flink til- fods,|flink med skræp- pen|paa sin nak- ke|baa- de op og|
 (AB) (cd) | (e2 d2) | e4 |] %18
w: ned _ ad _|bak- *|ke.|
V:3
 E,3/2 E,/ E, E, | F,3/2 F,/ F, F, | G,3/2 G,/ =A, A, | F, F, D,2 | E,3/2 E,/ E, E, | %5
w: Gud- mund Thor- sen|Sto- re- bin- gen,|han var gjæv i|ét og alt,|smal om li- vet,|
 F,3/2 F,/ F, F, | G,3/2 G,/ =A, A, | F, F, D,2 | B,3/2 B,/ B, B, | B, B, =A,2 | G,3/2 G,/ G, G, | %11
w: bred om brin- gen,|fast paa taa, hvor|an- dre faldt,|glad og let, men|arm paa gods,|der- for var han|
 F, F, B,2 | G,3/2 G,/ G, G, | G,3/2 F,/ F, E, | E,3/2 E,/ E, E, | (E,F,) (G,A,) | (B,2 A,2) | %17
w: flink til- fods,|flink med skræp- pen|paa sin nak- ke|baa- de op og|ned _ ad _|bak- *|
 G,4 |] %18
w: ke.|
V:4
 E,3/2 E,/ E, E, | D,3/2 D,/ D, D, | C,3/2 C,/ F, F, | B,, F, B,,2 | E,3/2 E,/ E, E, | %5
w: Gud- mund Thor- sen|Sto- re- bin- gen,|han var gjæv i|ét og alt,|smal om li- vet,|
 D,3/2 D,/ D, D, | C,3/2 C,/ F, F, | B,, F, B,,2 | B,3/2 B,/ B, =A, | G, G, F,2 | F,3/2 F,/ E, E, | %11
w: bred om brin- gen,|fast paa taa, hvor|an- dre faldt,|glad og let, men|arm paa gods,|der- for var han|
 D, C, B,,2 | C,3/2 C,/ G, F, | E,3/2 E,/ D, D, | C,3/2 C,/ C, C, | B,,2 B,,2 | B,,4 | E,4 |] %18
w: flink til- fods,|flink med skræp- pen|paa sin nak- ke|baa- de op og|ned ad|bak-|ke.|

